src/icons/webhooks-incoming.svg

<?xml version="1.0" encoding="UTF-8"?>
<svg width="512px" height="512px" viewBox="0 0 512 512" version="1.1" xmlns="http://www.w3.org/2000/svg" xmlns:xlink="http://www.w3.org/1999/xlink">
    <!-- Generator: Sketch 62 (91390) - https://sketch.com -->
    <title>webhooks-incoming</title>
    <desc>Created with Sketch.</desc>
    <g id="webhooks-incoming" stroke="none" stroke-width="1" fill="none" fill-rule="evenodd">
        <path d="M187.85,102.813861 C162.65,104.613861 138.45,118.613861 125.05,142.113861 C106.05,175.013861 113.95,216.213861 141.25,240.413861 L114.75,286.013861 C103.65,286.013861 93.25,292.013861 87.65,301.713861 C78.95,316.713861 83.95,335.713861 98.95,344.513861 C113.95,353.213861 133.05,348.213861 141.75,333.213861 C147.35,323.413861 147.35,311.513861 141.75,301.713861 L183.55,229.913861 L169.75,222.113861 C147.25,209.013861 139.55,180.313861 152.55,157.713861 C165.55,135.113861 194.35,127.513861 216.95,140.513861 C239.55,153.513861 247.15,182.313861 234.15,204.913861 L261.65,220.613861 C283.35,183.113861 270.15,134.713861 232.65,112.913861 C219.05,105.413861 203.55,101.713861 187.85,102.813861 L187.85,102.813861 Z M189.35,149.913861 C185.35,150.513861 181.25,151.713861 177.55,153.913861 C162.55,162.613861 157.65,182.113861 166.25,197.113861 C171.75,206.913861 182.05,212.813861 193.35,212.813861 L234.55,284.613861 L248.35,276.813861 C270.85,263.713861 299.65,271.413861 312.65,294.013861 C325.65,316.613861 318.05,345.313861 295.45,358.413861 C272.85,371.513861 244.15,363.813861 231.15,341.213861 L203.65,356.913861 C225.35,394.413861 273.75,407.613861 311.35,385.913861 C348.95,364.213861 362.05,315.813861 340.35,278.213861 C321.35,245.313861 281.65,231.213861 246.95,242.913861 L220.25,197.413861 C225.85,187.613861 225.85,175.713861 220.25,165.913861 C213.85,154.513861 201.55,148.413861 189.35,149.913861 Z M114.65,238.913861 C71.35,238.913861 36.05,274.113861 36.05,317.513861 C36.05,360.813861 71.25,396.213861 114.65,396.213861 C152.65,396.213861 184.55,369.113861 191.75,333.413861 L244.85,333.413861 C250.35,342.813861 260.25,349.113861 271.95,349.113861 C289.25,349.113861 303.45,335.113861 303.45,317.713861 C303.45,300.313861 289.45,286.213861 272.15,286.213861 C260.55,286.213861 250.55,292.513861 245.05,301.913861 L162.05,301.913861 L162.05,317.613861 C162.05,343.613861 140.85,364.813861 114.85,364.813861 C88.85,364.813861 67.65,343.613861 67.65,317.613861 C67.65,291.613861 88.85,270.413861 114.85,270.413861 C114.65,270.413861 114.65,238.913861 114.65,238.913861 Z M462.25,158.013861 L461.05,159.013861 L373.55,234.913861 C370.55,237.713861 368.75,241.513861 368.75,245.613861 C368.75,249.913861 370.65,253.713861 373.55,256.313861 L460.85,332.213861 L462.35,333.413861 C463.75,334.413861 465.35,334.913861 467.15,334.913861 C471.95,334.913861 475.95,330.813861 475.95,325.713861 L475.95,165.713861 C475.95,160.613861 471.95,156.513861 467.15,156.513861 C465.35,156.513861 463.65,157.113861 462.25,158.013861 L462.25,158.013861 Z" id="Shape" fill="#000000" fill-rule="nonzero"></path>
    </g>
</svg>

<svg xmlns="http://www.w3.org/2000/svg" width="512" height="512" viewBox="0 0 512 512">
    <path d="M187.85 102.814c-25.2 1.8-49.4 15.8-62.8 39.3-19 32.9-11.1 74.1 16.2 98.3l-26.5 45.6c-11.1 0-21.5 6-27.1 15.7-8.7 15-3.7 34 11.3 42.8 15 8.7 34.1 3.7 42.8-11.3 5.6-9.8 5.6-21.7 0-31.5l41.8-71.8-13.8-7.8c-22.5-13.1-30.2-41.8-17.2-64.4 13-22.6 41.8-30.2 64.4-17.2 22.6 13 30.2 41.8 17.2 64.4l27.5 15.7c21.7-37.5 8.5-85.9-29-107.7-13.6-7.5-29.1-11.2-44.8-10.1zm1.5 47.1c-4 .6-8.1 1.8-11.8 4-15 8.7-19.9 28.2-11.3 43.2 5.5 9.8 15.8 15.7 27.1 15.7l41.2 71.8 13.8-7.8c22.5-13.1 51.3-5.4 64.3 17.2s5.4 51.3-17.2 64.4c-22.6 13.1-51.3 5.4-64.3-17.2l-27.5 15.7c21.7 37.5 70.1 50.7 107.7 29 37.6-21.7 50.7-70.1 29-107.7-19-32.9-58.7-47-93.4-35.3l-26.7-45.5c5.6-9.8 5.6-21.7 0-31.5-6.4-11.4-18.7-17.5-30.9-16zm-74.7 89c-43.3 0-78.6 35.2-78.6 78.6 0 43.3 35.2 78.7 78.6 78.7 38 0 69.9-27.1 77.1-62.8h53.1c5.5 9.4 15.4 15.7 27.1 15.7 17.3 0 31.5-14 31.5-31.4s-14-31.5-31.3-31.5c-11.6 0-21.6 6.3-27.1 15.7h-83v15.7c0 26-21.2 47.2-47.2 47.2-26 0-47.2-21.2-47.2-47.2 0-26 21.2-47.2 47.2-47.2-.2 0-.2-31.5-.2-31.5zm347.6-80.9l-1.2 1-87.5 75.9c-3 2.8-4.8 6.6-4.8 10.7 0 4.3 1.9 8.1 4.8 10.7l87.3 75.9 1.5 1.2c1.4 1 3 1.5 4.8 1.5 4.8 0 8.8-4.1 8.8-9.2v-160c0-5.1-4-9.2-8.8-9.2-1.8 0-3.5.6-4.9 1.5z"/>
</svg>
